src/16/panel/pia_tray_disconnected.svg

<svg xmlns="http://www.w3.org/2000/svg" width="16" height="16" version="1.1">
 <defs>
  <style id="current-color-scheme" type="text/css">
   .ColorScheme-Text { color:#dfdfdf; } .ColorScheme-Highlight { color:#4285f4; }
  </style>
 </defs>
 <path style="opacity:0.3;fill:currentColor" class="ColorScheme-Text" d="M 8.5,0 C 5.4627564,0 3.0004562,2.3276432 3,5.1992188 3.00172,5.3328938 3.00888,5.4664566 3.021484,5.5996094 L 3,5.5996094 3,6 1.8339844,6 C 1.3723177,6 1,6.3464546 1,6.7773438 L 1,12.222656 C 1,12.653545 1.3723177,13 1.8339844,13 L 3,13 3,15.199219 C 3,15.642419 3.3769338,16 3.8457031,16 l 2.9628907,0 1.2675781,-2 0.8476562,0 1.2675779,2 2.962891,0 C 13.623066,16 14,15.642419 14,15.199219 L 14,13 15.166016,13 C 15.627682,13 16,12.653545 16,12.222656 L 16,6.7773438 C 16,6.3464546 15.627682,6 15.166016,6 L 14,6 l 0,-0.4003906 -0.01758,0 C 13.993721,5.466409 13.999584,5.3328463 14,5.1992188 13.999544,2.3276432 11.537244,0 8.5,0 Z m 0,2 c 1.932663,-1e-7 3.5,1 3.5,3.977539 -5.58e-4,0.014978 -0.0012,0.029952 -0.002,0.044922 L 5,6.0224609 C 4.9999069,6.0074869 4.9999069,5.9925129 5,5.9775389 5,2.9999999 6.567337,1.9999998 8.5,2 Z M 6,4 6,5 7,5 7,4 Z m 4,0 0,1 1,0 0,-1 z M 8.5,7 c 0.9233334,0 1.4667964,0.782188 1.4667964,1.742188 l 0,0.257812 0.6171876,0 C 10.811473,8.96085 11,9.262571 11,9.5 l 0,2.072266 C 11,11.809694 10.814818,12 10.583984,12 L 6.4160156,12 C 6.1851822,12 6,11.809694 6,11.572266 L 6,9.5 C 6,9.262571 6.1851822,9 6.4160156,9 l 0.6171875,0 0,-0.257812 C 7.0332031,7.781802 7.5766667,7 8.5,7 Z m 0,0.857422 c -0.4616667,0 -0.6328125,0.382565 -0.6328125,0.857422 l 0,0.285156 1.265625,0 0,-0.285156 C 9.1328125,8.239987 8.9616667,7.857422 8.5,7.857422 Z"/>
</svg>

<svg xmlns="http://www.w3.org/2000/svg" width="16" height="16"><defs><style id="current-color-scheme" type="text/css"></style></defs><path d="M8.5 0C5.463 0 3 2.328 3 5.2c.002.133.009.266.021.4H3V6H1.834C1.372 6 1 6.346 1 6.777v5.446c0 .43.372.777.834.777H3v2.2c0 .442.377.8.846.8h2.963l1.267-2h.848l1.267 2h2.963c.47 0 .846-.358.846-.8V13h1.166c.462 0 .834-.346.834-.777V6.777c0-.43-.372-.777-.834-.777H14v-.4h-.018c.012-.134.018-.267.018-.4C14 2.327 11.537 0 8.5 0zm0 2C10.433 2 12 3 12 5.978l-.002.044H5v-.044C5 3 6.567 2 8.5 2zM6 4v1h1V4zm4 0v1h1V4zM8.5 7c.923 0 1.467.782 1.467 1.742V9h.617c.227-.04.416.263.416.5v2.072a.42.42 0 0 1-.416.428H6.416A.42.42 0 0 1 6 11.572V9.5c0-.237.185-.5.416-.5h.617v-.258C7.033 7.782 7.577 7 8.5 7zm0 .857c-.462 0-.633.383-.633.858V9h1.266v-.285c0-.475-.171-.858-.633-.858z" opacity=".3" fill="currentColor" color="#bebebe"/></svg>
